src/assets/icon/gold.svg

<svg width="100" height="100" viewBox="0 0 100 100" fill="none" xmlns="http://www.w3.org/2000/svg">
<g id="gold" clip-path="url(#clip0_2250_88102)">
<path id="GOLD" d="M24.1353 100.24C22.8233 100.24 21.6153 100.032 20.5113 99.616C19.4233 99.184 18.4713 98.584 17.6553 97.816C16.8393 97.032 16.2073 96.112 15.7593 95.056C15.3113 94 15.0873 92.848 15.0873 91.6C15.0873 90.352 15.3113 89.2 15.7593 88.144C16.2073 87.088 16.8393 86.176 17.6553 85.408C18.4873 84.624 19.4553 84.024 20.5593 83.608C21.6633 83.176 22.8713 82.96 24.1833 82.96C25.6073 82.96 26.8873 83.192 28.0233 83.656C29.1753 84.12 30.1433 84.8 30.9273 85.696L28.9593 87.616C28.3033 86.96 27.5913 86.48 26.8233 86.176C26.0713 85.856 25.2393 85.696 24.3273 85.696C23.4473 85.696 22.6313 85.84 21.8793 86.128C21.1273 86.416 20.4793 86.824 19.9353 87.352C19.3913 87.88 18.9673 88.504 18.6633 89.224C18.3753 89.944 18.2313 90.736 18.2313 91.6C18.2313 92.448 18.3753 93.232 18.6633 93.952C18.9673 94.672 19.3913 95.304 19.9353 95.848C20.4793 96.376 21.1193 96.784 21.8553 97.072C22.5913 97.36 23.4073 97.504 24.3033 97.504C25.1353 97.504 25.9353 97.376 26.7032 97.12C27.4873 96.848 28.2313 96.4 28.9353 95.776L30.7113 98.104C29.8313 98.808 28.8073 99.344 27.6393 99.712C26.4873 100.064 25.3193 100.24 24.1353 100.24ZM27.7593 97.696V91.408H30.7113V98.104L27.7593 97.696ZM42.6983 100.24C41.3863 100.24 40.1783 100.024 39.0743 99.592C37.9703 99.16 37.0103 98.56 36.1943 97.792C35.3783 97.008 34.7463 96.096 34.2983 95.056C33.8503 94 33.6263 92.848 33.6263 91.6C33.6263 90.352 33.8503 89.208 34.2983 88.168C34.7463 87.112 35.3783 86.2 36.1943 85.432C37.0103 84.648 37.9703 84.04 39.0743 83.608C40.1783 83.176 41.3783 82.96 42.6743 82.96C43.9863 82.96 45.1863 83.176 46.2743 83.608C47.3783 84.04 48.3383 84.648 49.1543 85.432C49.9703 86.2 50.6023 87.112 51.0503 88.168C51.4983 89.208 51.7223 90.352 51.7223 91.6C51.7223 92.848 51.4983 94 51.0503 95.056C50.6023 96.112 49.9703 97.024 49.1543 97.792C48.3383 98.56 47.3783 99.16 46.2743 99.592C45.1863 100.024 43.9943 100.24 42.6983 100.24ZM42.6743 97.504C43.5223 97.504 44.3063 97.36 45.0263 97.072C45.7463 96.784 46.3703 96.376 46.8983 95.848C47.4263 95.304 47.8343 94.68 48.1223 93.976C48.4263 93.256 48.5783 92.464 48.5783 91.6C48.5783 90.736 48.4263 89.952 48.1223 89.248C47.8343 88.528 47.4263 87.904 46.8983 87.376C46.3703 86.832 45.7463 86.416 45.0263 86.128C44.3063 85.84 43.5223 85.696 42.6743 85.696C41.8263 85.696 41.0423 85.84 40.3223 86.128C39.6183 86.416 38.9943 86.832 38.4503 87.376C37.9223 87.904 37.5063 88.528 37.2023 89.248C36.9143 89.952 36.7703 90.736 36.7703 91.6C36.7703 92.448 36.9143 93.232 37.2023 93.952C37.5063 94.672 37.9223 95.304 38.4503 95.848C38.9783 96.376 39.6023 96.784 40.3223 97.072C41.0423 97.36 41.8263 97.504 42.6743 97.504ZM55.0294 100V83.2H58.1494V97.36H66.9334V100H55.0294ZM69.3966 100V83.2H76.7406C78.5646 83.2 80.1646 83.552 81.5406 84.256C82.9166 84.96 83.9886 85.936 84.7566 87.184C85.5246 88.432 85.9086 89.904 85.9086 91.6C85.9086 93.28 85.5246 94.752 84.7566 96.016C83.9886 97.264 82.9166 98.24 81.5406 98.944C80.1646 99.648 78.5646 100 76.7406 100H69.3966ZM72.5166 97.36H76.5966C77.8606 97.36 78.9486 97.12 79.8606 96.64C80.7886 96.16 81.5006 95.488 81.9966 94.624C82.5086 93.76 82.7646 92.752 82.7646 91.6C82.7646 90.432 82.5086 89.424 81.9966 88.576C81.5006 87.712 80.7886 87.04 79.8606 86.56C78.9486 86.08 77.8606 85.84 76.5966 85.84H72.5166V97.36Z" fill="url(#paint0_linear_2250_88102)"/>
<g id="Gold">
<path id="Union" fill-rule="evenodd" clip-rule="evenodd" d="M75.4043 12.9618L63.2526 21.6706C63.2526 21.6706 51.9109 6.68345 36.5188 19.0377L29.5315 12.0505C29.5315 12.0505 36.6115 3.90506 43.7 3.5V0H54.9V3.5C54.8978 3.5 54.8975 3.50003 54.8992 3.50013C54.9005 3.5002 54.9031 3.50032 54.907 3.50049C55.2194 3.5144 63.7755 3.89535 75.4043 12.9618ZM24.5398 57.0382L36.6915 48.3294C36.6915 48.3294 48.0331 63.3166 63.4253 50.9623L70.4125 57.9496C70.4125 57.9496 63.3885 66.0949 56.3 66.5V70H45.1V66.5C45.1 66.5 36.4889 66.3545 24.5398 57.0382ZM50.0705 30.1768C27.7923 29.5692 27.9624 13.8732 27.9624 13.8732C23.4001 17.5 17.7999 40.5058 45.1922 40.5058C70.3002 40.5058 72.7537 55.8979 72.7537 55.8979C82.8801 42.7336 72.3486 30.7844 50.0705 30.1768Z" fill="url(#paint1_linear_2250_88102)"/>
</g>
</g>
<defs>
<linearGradient id="paint0_linear_2250_88102" x1="10.5874" y1="91.5001" x2="88.3354" y2="91.5001" gradientUnits="userSpaceOnUse">
<stop stop-color="#AB750F"/>
<stop offset="0.516" stop-color="#D8A956"/>
<stop offset="1" stop-color="#AB750F"/>
</linearGradient>
<linearGradient id="paint1_linear_2250_88102" x1="21.7152" y1="35.0003" x2="77.579" y2="35.0003" gradientUnits="userSpaceOnUse">
<stop stop-color="#AB750F"/>
<stop offset="0.516" stop-color="#D8A956"/>
<stop offset="1" stop-color="#AB750F"/>
</linearGradient>
<clipPath id="clip0_2250_88102">
<rect width="100" height="100" fill="white"/>
</clipPath>
</defs>
</svg>

<svg xmlns="http://www.w3.org/2000/svg" width="100" height="100" fill="none" xmlns:v="https://vecta.io/nano"><g clip-path="url(#C)"><path d="M24.135 100.24c-1.312 0-2.52-.208-3.624-.624-1.088-.432-2.04-1.032-2.856-1.8-.816-.784-1.448-1.704-1.896-2.76s-.672-2.208-.672-3.456.224-2.4.672-3.456 1.08-1.968 1.896-2.736c.832-.784 1.8-1.384 2.904-1.8 1.104-.432 2.312-.648 3.624-.648 1.424 0 2.704.232 3.84.696 1.152.464 2.12 1.144 2.904 2.04l-1.968 1.92c-.656-.656-1.368-1.136-2.136-1.44-.752-.32-1.584-.48-2.496-.48-.88 0-1.696.144-2.448.432a5.66 5.66 0 0 0-1.944 1.224 5.63 5.63 0 0 0-1.272 1.872c-.288.72-.432 1.512-.432 2.376 0 .848.144 1.632.432 2.352a5.9 5.9 0 0 0 1.272 1.896c.544.528 1.184.936 1.92 1.224s1.552.432 2.448.432c.832 0 1.632-.128 2.4-.384.784-.272 1.528-.72 2.232-1.344l1.776 2.328c-.88.704-1.904 1.24-3.072 1.608a11.93 11.93 0 0 1-3.504.528zm3.624-2.544v-6.288h2.952v6.696l-2.952-.408zm14.939 2.544c-1.312 0-2.52-.216-3.624-.648s-2.064-1.032-2.88-1.8c-.816-.784-1.448-1.696-1.896-2.736-.448-1.056-.672-2.208-.672-3.456s.224-2.392.672-3.432c.448-1.056 1.08-1.968 1.896-2.736.816-.784 1.776-1.392 2.88-1.824s2.304-.648 3.6-.648c1.312 0 2.512.216 3.6.648 1.104.432 2.064 1.04 2.88 1.824.816.768 1.448 1.68 1.896 2.736.448 1.04.672 2.184.672 3.432s-.224 2.4-.672 3.456-1.08 1.968-1.896 2.736-1.776 1.368-2.88 1.8c-1.088.432-2.28.648-3.576.648zm-.024-2.736c.848 0 1.632-.144 2.352-.432s1.344-.696 1.872-1.224c.528-.544.936-1.168 1.224-1.872.304-.72.456-1.512.456-2.376s-.152-1.648-.456-2.352c-.288-.72-.696-1.344-1.224-1.872a5.34 5.34 0 0 0-1.872-1.248c-.72-.288-1.504-.432-2.352-.432s-1.632.144-2.352.432a5.65 5.65 0 0 0-1.872 1.248c-.528.528-.944 1.152-1.248 1.872-.288.704-.432 1.488-.432 2.352 0 .848.144 1.632.432 2.352.304.72.72 1.352 1.248 1.896.528.528 1.152.936 1.872 1.224s1.504.432 2.352.432zM55.029 100V83.2h3.12v14.16h8.784V100H55.029zm14.367 0V83.2h7.344c1.824 0 3.424.352 4.8 1.056s2.448 1.68 3.216 2.928 1.152 2.72 1.152 4.416c0 1.68-.384 3.152-1.152 4.416-.768 1.248-1.84 2.224-3.216 2.928S78.565 100 76.741 100h-7.344zm3.12-2.64h4.08c1.264 0 2.352-.24 3.264-.72.928-.48 1.64-1.152 2.136-2.016.512-.864.768-1.872.768-3.024 0-1.168-.256-2.176-.768-3.024-.496-.864-1.208-1.536-2.136-2.016-.912-.48-2-.72-3.264-.72h-4.08v11.52z" fill="url(#A)"/><path fill-rule="evenodd" d="M75.404 12.962l-12.152 8.709S51.911 6.683 36.519 19.038l-6.987-6.987S36.612 3.905 43.7 3.5V0h11.2v3.5c.319.014 8.876.395 20.504 9.462zM24.54 57.038l12.152-8.709s11.342 14.987 26.734 2.633l6.987 6.987S63.389 66.095 56.3 66.5V70H45.1v-3.5s-8.611-.145-20.56-9.462zm25.531-26.861c-22.278-.608-22.108-16.304-22.108-16.304C23.4 17.5 17.8 40.506 45.192 40.506c25.108 0 27.561 15.392 27.561 15.392 10.126-13.164-.405-25.113-22.683-25.721z" fill="url(#B)"/></g><defs><linearGradient id="A" x1="10.587" y1="91.5" x2="88.335" y2="91.5" gradientUnits="userSpaceOnUse"><stop stop-color="#ab750f"/><stop offset=".516" stop-color="#d8a956"/><stop offset="1" stop-color="#ab750f"/></linearGradient><linearGradient id="B" x1="21.715" y1="35" x2="77.579" y2="35" gradientUnits="userSpaceOnUse"><stop stop-color="#ab750f"/><stop offset=".516" stop-color="#d8a956"/><stop offset="1" stop-color="#ab750f"/></linearGradient><clipPath id="C"><path fill="#fff" d="M0 0h100v100H0z"/></clipPath></defs></svg>
